X: 11102
T: GLORIOUS THE RAY GLANCING OVER THE OCEAN.
T: From the Opera of "Paul and Virginia."
C: W. Reeve.
Q: "Moderate."
%R: air, waltz
B: W. Hamilton "Universal Tune-Book" Vol. 1 Glasgow 1844 p.110 #2
S: http://imslp.org/wiki/Hamilton's_Universal_Tune-Book_(Various)
Z: 2016 John Chambers <jc:trillian.mit.edu>
M: 3/8
L: 1/16
K: Eb
% - - - - - - - - - - - - - - - - - - - - - - - - -
[|\
B2e2d2 | e3fg2 | f3ge2 | d3cB2 |\
c2(e>d)e2 | B2(e>d)e2 | (fg)(ag)(fe) | (e2d2)z2 |\
B2e2d2 | e3fg2 |
c2f2=e2 | f3ga2 | b3ag2 | g3fe2 | c2f2d2 | e4 |]\
f2 |\
f3ed2 | d3cB2 | c2d2e2 | (dfbf)(de) |
f3ed2 | d2c2B2 | c3B(cd) | B4z2 |\
d2g2f2 | e3dc2 | c2f2e2 | (d3c)B2 |\
B2e2d2 | e3fg2 |
c2f2e2 | (He2Hd2)B2 |\
b3ag2 | g3fe2 | f2e2f2 | (gfef)(ga) |\
b3ag2 | g3fe2 | f3e(fg) | e6 |]
% - - - - - - - - - - - - - - - - - - - - - - - - -

%%sep 1 1 500
%%sep 1 1 500

